X:1
T:Title
%%score { ( 1 4 ) | ( 2 3 ) }
L:1/8
M:4/4
K:D
V:1 treble nm="Grand Piano"
V:4 treble 
V:2 bass 
V:3 bass 
V:1
 z4 z2[Q:1/4=100] DE | F2 F[EG] [FA]2 [FA][FA] | [GB]d[DAc][DGB] [DFA][A,DF][K:bass][F,D][G,DE] | %3
 [A,DF]2 [A,DF]>[B,DG] [A,DF]2 [G,CE]2 | D6 DE | F2 F[EG] [FA]2 [FA][FA] | %6
 [GB][Bd][Ac][GB] [FA][DF][FA][FB] | c2 c>d c2 B2 |[M:3/4] [A,CA]6 |[M:1/4] A2 |[M:4/4] e4 d2 c2 | %11
 d2- [Gd-]2 [Fd]2 F2 | E c3 d2 ^G2 | [CEA]6 [A,CA]>[A,EG] | %14
 [A,DF]2 [A,DF][A,EG] [DFA]2 [DFA][DFA] | [DGB][DBd][DAc][DGB] [DFA][A,DF][DFA]d | c2 d2 e2 [Gc]2 | %17
[M:3/4] [Fd]6 |] %18
V:2
 z4 z2 [D,F,][D,G,D] | [D,A,D]2 [D,A,D][D,A,] [D,D]2 [D,D][D,D] | [G,D]2[K:bass] z2 z4 | %3
 D,2 D,>G,, A,,2 A,,2 | [D,F,]6 [D,F,][D,G,D] | [D,A,D]2 [D,A,D][D,A,] [D,D]2 [D,D][D,D] | %6
 [G,D]2 [G,D][G,D] [D,D][D,A,][D,D][D,D] | [E,A,E]2 [E,A,E]>[E,B,E] [E,A,E]2 [E,^G,D]2 | %8
[M:3/4] A,,6 |[M:1/4] A,2 |[M:4/4][K:treble] [A,CG]4 [A,DF]2 [A,EG]2 | %11
 [D,D]2 [D,B,]2 [D,A,]2 [D,A,D]2 | [E,A,C] [E,A,E]3 [E,B,E]2 [E,DE]2 | A,,2 C,>E, A,2 A,,>A,, | %14
 D,2 D,D, D,2 D,D, | G,G,G,G, D,D,D,[F,A,D] | [A,E]2 [A,F]2[K:bass] [A,,CG]2 [A,,A,]2 | %17
[M:3/4] [D,A,]6 |] %18
V:3
 x8 | x8 | z B[K:bass]G,G, D,D,D,D, | x8 | x8 | x8 | x8 | x8 |[M:3/4] x6 |[M:1/4] x2 | %10
[M:4/4][K:treble] x8 | x8 | x8 | x8 | x8 | x8 | x4[K:bass] x4 |[M:3/4] x6 |] %18
V:4
 x8 | x8 | x6[K:bass] x2 | x8 | x8 | x8 | x8 | x8 |[M:3/4] x6 |[M:1/4] x2 |[M:4/4] x8 | F2 z2 z4 | %12
 x8 | x8 | x8 | x8 | x8 |[M:3/4] x6 |] %18

